X: 81
T: POLKA: Farewell to Whiskey
C: C: Niel Gow; S: Ann Kelsey; James Morrison & John McKenna
C: Set Leaders: Mars, Anton
Z: Mars Agliullin ed., Anton Zille ed.; ceolachan at The Session
N: https://thesession.org/members/26966/sets/94260
R: Polka
M: 2/4
L: 1/8
Q: 1/4=140
K: Gmaj
|:DG B/A/G/A/|BE EG/E/|DG B/A/G/B/|dB Bd|
e/f/g/e/ dB|c/B/A/G/ AB|DG B/A/G/A/|1 BG GG/E/:|2 BG G2||
|:dB/d/ g>d|e/f/g/e/ dB|dB/d/ gd|ef g>d|
e/f/g/e/ dB|c/B/A/G/ AB|DG B/A/G/A/|1 BG G2:|2 BG G2||

